_includes/icons/color-elections.svg

<svg fill="#666" height="50" viewBox="0 0 48 48" width="50" xmlns="http://www.w3.org/2000/svg"><path d="m44 42h-40l3-15h34z" fill="#cfd8dc"/><path d="m36 36h-24c-1.101562 0-2-.898437-2-2 0-1.101562.898438-2 2-2h24c1.101563 0 2 .898438 2 2 0 1.101563-.898437 2-2 2z" fill="#455a64"/><path d="m23 6 7.757813 9.050781c.242187.484375.242187 1.21875.242187 1.949219l-3.683594 8.195313c-.242187 1.21875-1.09375 2.316406-2.316406 2.804687-.707031.265625.140625-.65625-1.945312 0 .027343-1.671875-.59375-3.355469-1.871094-4.628906-.222656-.226563-.460938-.421875-.707031-.601563l3.207031-1.050781-.246094-4.71875-5.4375-4s-8 9-9-7z" fill="#ffa726"/><path d="m15 17h18v18h-18z" fill="#64b5f6"/><path d="m22.21875 27.78125c-1.355469 1.097656-3.105469.582031-4.144531-.558594l-8.074219-9.222656c-.519531-.570312-1-3.292969-1-3.914062 0-3 0-8.085938 0-8.085938l10 7v5l3.382813 5.039063c1.417968 1.839843 1.199218 3.605468-.164063 4.742187" fill="#ffa726"/><path d="m19.125 26.699219c.714844.699219 1.855469.691406 2.558594-.019531.699219-.714844.6875-1.859375-.023438-2.5625-.714843-.699219-3.25 1.882812-2.535156 2.582031" fill="#ffcdd2"/><path d="m15 34h18v2h-18z" fill="#1e88e5"/><path d="m23.4375 17-4.4375-3.265625v3.265625z" fill="#d68022"/></svg>

<svg xmlns="http://www.w3.org/2000/svg" viewBox="0 0 48 48" width="50" height="50" fill="#666"><path d="M 44 42 L 4 42 L 7 27 L 41 27 Z" fill="#cfd8dc"/><path d="M 36 36 L 12 36 C 10.898438 36 10 35.101563 10 34 C 10 32.898438 10.898438 32 12 32 L 36 32 C 37.101563 32 38 32.898438 38 34 C 38 35.101563 37.101563 36 36 36 Z" fill="#455a64"/><path d="M 23 6 L 30.757813 15.050781 C 31 15.535156 31 16.269531 31 17 L 27.316406 25.195313 C 27.074219 26.414063 26.222656 27.511719 25 28 C 24.292969 28.265625 25.140625 27.34375 23.054688 28 C 23.082031 26.328125 22.460938 24.644531 21.183594 23.371094 C 20.960938 23.144531 20.722656 22.949219 20.476563 22.769531 L 23.683594 21.71875 L 23.4375 17 L 18 13 C 18 13 10 22 9 6 Z" fill="#ffa726"/><path d="M 15 17 L 33 17 L 33 35 L 15 35 Z" fill="#64b5f6"/><path d="M 22.21875 27.78125 C 20.863281 28.878906 19.113281 28.363281 18.074219 27.222656 L 10 18 C 9.480469 17.429688 9 14.707031 9 14.085938 C 9 11.085938 9 6 9 6 L 19 13 L 19 18 L 22.382813 23.039063 C 23.800781 24.878906 23.582031 26.644531 22.21875 27.78125" fill="#ffa726"/><path d="M 19.125 26.699219 C 19.839844 27.398438 20.980469 27.390625 21.683594 26.679688 C 22.382813 25.964844 22.371094 24.820313 21.660156 24.117188 C 20.945313 23.417969 18.410156 26 19.125 26.699219" fill="#ffcdd2"/><path d="M 15 34 L 33 34 L 33 36 L 15 36 Z" fill="#1e88e5"/><path d="M 23.4375 17 L 19 13.734375 L 19 17 Z" fill="#d68022"/></svg>
